dhis-2/dhis-support/dhis-support-system/src/main/resources/SVGs/pills_3_negative.svg

<svg width="48" height="48" viewBox="0 0 48 48" fill="none" xmlns="http://www.w3.org/2000/svg">
<path fill-rule="evenodd" clip-rule="evenodd" d="M0 0V47.9994H47.9994V0H0ZM24.5307 4.04295C24.6257 4.04125 24.7347 4.04815 24.8587 4.06635C29.4556 4.61094 33.0546 8.43439 33.2266 13.1598C33.3896 17.8968 30.0566 21.9787 25.4957 22.8417C24.6707 22.9717 24.5157 22.5147 24.4977 22.0137L23.9017 4.98594C23.8927 4.71894 23.8827 4.45274 23.9997 4.27145C24.0877 4.13545 24.2467 4.04795 24.5307 4.04295ZM22.2107 4.14255C22.7897 4.14885 22.9347 4.54494 22.9487 4.96084L23.5487 22.0696C23.5657 22.5506 23.5777 23.0686 22.6307 22.9376C18.0138 22.4106 14.3948 18.5797 14.2228 13.8397C14.1608 12.0657 14.5918 10.3848 15.3928 8.92949C16.7268 6.50392 19.0908 4.70794 21.9357 4.16395C22.0367 4.14775 22.1277 4.14155 22.2107 4.14245V4.14255ZM13.3648 24.9743C17.3238 24.9253 21.0277 27.3713 22.4257 31.2782C23.0207 32.9502 23.1197 34.6842 22.7967 36.3131C22.2587 39.0291 20.5467 41.4561 17.9998 42.8351C17.2668 43.2031 16.9528 42.8301 16.7928 42.3821L11.0469 26.2553C10.8859 25.8023 10.7159 25.3113 11.6579 25.1493C12.2278 25.0383 12.7998 24.9813 13.3648 24.9743ZM34.7226 25.0053C37.4895 25.0883 40.1655 26.3763 41.9445 28.6612C42.4285 29.3242 42.1125 29.6952 41.6965 29.9272L26.7377 38.2511C26.3177 38.4851 25.8617 38.7321 25.5467 37.8291C23.9127 33.4792 25.6767 28.5122 29.8176 26.2003C31.3696 25.3383 33.0616 24.9553 34.7226 25.0053ZM9.43688 25.9603C9.84038 25.9343 10.0334 26.2423 10.1594 26.5973L15.8763 42.6441C15.9663 42.8961 16.0563 43.1481 15.9993 43.3561C15.9423 43.5651 15.7383 43.7301 15.2413 43.8111C10.6954 44.683 6.10972 42.1251 4.51744 37.6731C2.92876 33.2082 4.87204 28.3102 8.95839 26.1083C9.14509 26.0153 9.30238 25.9693 9.43688 25.9603ZM42.7885 30.5482C43.0035 30.5702 43.2005 30.7432 43.3625 31.2202C44.9714 35.5602 43.2045 40.5051 39.0755 42.8101C34.9336 45.112 29.7826 44.0031 26.9377 40.3351C26.4457 39.6601 26.7817 39.3131 27.2207 39.0691L42.1065 30.7862C42.3405 30.6562 42.5735 30.5262 42.7885 30.5482Z" fill="#333333"/>
</svg>

<?xml version="1.0" encoding="UTF-8" standalone="no"?>
<!-- Created with Inkscape (http://www.inkscape.org/) -->
<svg id="svg8" xmlns:rdf="http://www.w3.org/1999/02/22-rdf-syntax-ns#" xmlns="http://www.w3.org/2000/svg" xmlns:osb="http://www.openswatchbook.org/uri/2009/osb" height="48" width="48" version="1.1" xmlns:cc="http://creativecommons.org/ns#" viewBox="0 0 12.7 12.7" xmlns:dc="http://purl.org/dc/elements/1.1/">
 <title id="title4753">UIO-icon</title>
 <metadata id="metadata5">
  <rdf:RDF>
   <cc:Work rdf:about="">
    <dc:format>image/svg+xml</dc:format>
    <dc:type rdf:resource="http://purl.org/dc/dcmitype/StillImage"/>
    <dc:title>UIO-icon</dc:title>
    <dc:creator>
     <cc:Agent>
      <dc:title>Joaquín Urbano</dc:title>
     </cc:Agent>
    </dc:creator>
    <dc:rights>
     <cc:Agent>
      <dc:title>GPL</dc:title>
     </cc:Agent>
    </dc:rights>
   </cc:Work>
  </rdf:RDF>
 </metadata>
 <g id="layer1" fill="#333" transform="translate(0,-284.3)">
  <path id="rect884" d="m0 0v48h48v-48h-48zm24.531 4.043c0.095-0.0017 0.204 0.0052 0.328 0.0234 4.597 0.5446 8.196 4.3681 8.368 9.0936 0.163 4.737-3.17 8.819-7.731 9.682-0.825 0.13-0.98-0.327-0.998-0.828l-0.596-17.028c-0.009-0.267-0.019-0.5332 0.098-0.7145 0.088-0.136 0.247-0.2235 0.531-0.2285zm-2.32 0.0996c0.579 0.0063 0.724 0.4024 0.738 0.8183l0.6 17.109c0.017 0.481 0.029 0.999-0.918 0.868-4.617-0.527-8.236-4.358-8.408-9.098-0.062-1.774 0.369-3.455 1.17-4.9103 1.334-2.4256 3.698-4.2216 6.543-4.7656 0.101-0.0162 0.192-0.0224 0.275-0.0215zm-8.846 20.832c3.959-0.049 7.663 2.397 9.061 6.304 0.595 1.672 0.694 3.406 0.371 5.035-0.538 2.716-2.25 5.143-4.797 6.522-0.733 0.368-1.047-0.005-1.207-0.453l-5.746-16.127c-0.161-0.453-0.331-0.944 0.611-1.106 0.57-0.111 1.142-0.168 1.707-0.175zm21.358 0.031c2.767 0.083 5.443 1.371 7.222 3.656 0.484 0.663 0.168 1.034-0.248 1.266l-14.959 8.324c-0.42 0.234-0.876 0.481-1.191-0.422-1.634-4.35 0.13-9.317 4.271-11.629 1.552-0.862 3.244-1.245 4.905-1.195zm-25.286 0.955c0.4035-0.026 0.5965 0.282 0.7225 0.637l5.717 16.047c0.09 0.252 0.18 0.504 0.123 0.712-0.057 0.209-0.261 0.374-0.758 0.455-4.546 0.872-9.1317-1.686-10.724-6.138-1.5887-4.465 0.3546-9.363 4.441-11.565 0.1867-0.093 0.344-0.139 0.4785-0.148zm33.352 4.588c0.215 0.022 0.412 0.195 0.574 0.672 1.609 4.34-0.158 9.285-4.287 11.59-4.142 2.302-9.293 1.193-12.138-2.475-0.492-0.675-0.156-1.022 0.283-1.266l14.886-8.283c0.234-0.13 0.467-0.26 0.682-0.238z" fill-rule="evenodd" transform="matrix(.26458 0 0 .26458 0 284.3)"/>
 </g>
</svg>
